setcpm(130/4)
sound(`
[-  -  -  - ] [-  -  -  - ] [-  -  -  - ] [-  - - - ],
[-  -  -  - ] [-  -  -  - ] [-  -  -  - ] [-  - - - ],
[-  -  -  - ] [cp -  -  - ] [-  -  -  - ] [-  cp -  - ],
[-  -  -  - ] [-  -  -  - ] [-  -  -  - ] [-  - - - ],
[bd bd -  - ] [-  -  bd - ] [bd bd - bd ] [-  -  -  - ]`
).bank("RolandTR808")